X: 12
T: Missa L'homme arm\'e / Gloria
N: Derived from Duf1004b-Missa_Lhomme_arme-Gloria.krn
C: Guillaume Du Fay
%%abc-version 2.0
%%abcx-abcm2ps-target-version 5.9.1 (29 Sep 2008)
%%abc-creator hum2abc beta
%%abcx-conversion-date 2019/02/16 20:31:46
%%abc-edited-by Jesse Rodin
%%abc-edited-by Planchart/Rodin
%%abcx-initial-encoding-date 2013/12/07/
%%humdrum-veritas 3365371663
%%humdrum-veritas-data 1145631704
%%linebreak <none>
%%barnumbers 0
L: 1/4
M: 3/1
Q: 1/2=120
%%staves [1 2 3 4]
V: 1 clef=treble
V: 2 clef=treble-8
V: 3 clef=treble-8
V: 4 clef=bass
K: F
[V:1] G6A2=B4 | 
[V:2] G8G4 | 
[V:3] z12 | 
[V:4] z12 | 
[V:1] c4=B2d4c2 | 
[V:2] A4G8 | 
[V:3] z12 | 
[V:4] z12 | 
[V:1] =B2G2A4A4 | 
[V:2] G4F6E2 | 
[V:3] z12 | 
[V:4] z12 | 
[V:1] =B6G2G4 | 
[V:2] G8G4 | 
[V:3] z12 | 
[V:4] z12 | 
[V:1] z4c8 | 
[V:2] c6B2A4 | 
[V:3] z12 | 
[V:4] z12 | 
[V:1] =B4d6c2 | 
[V:2] G12 | 
[V:3] z12 | 
[V:4] z12 | 
[V:1] =B4A6G2 | 
[V:2] z4z4f4 | 
[V:3] z12 | 
[V:4] z12 | 
[V:1] G2z2d4c2e2 | 
[V:2] e2g3fd2e2c2 | 
[V:3] z12 | 
[V:4] z12 | 
[V:1] d2=B4A2B2c2 | 
[V:2] d4g2f2e4 | 
[V:3] z12 | 
[V:4] z12 | 
[V:1] d2=B3GG4F2 | 
[V:2] d6B2c2A2 | 
[V:3] z12 | 
[V:4] z12 | 
[V:1] G2E2D4z2F2 | 
[V:2] G4z2B2c2d2 | 
[V:3] z12 | 
[V:4] z12 | 
[V:1] G2A4G4c2 | 
[V:2] e2f3eg2e2c2 | 
[V:3] z12 | 
[V:4] z12 | 
[V:1] =B2d4G2AGFE | 
[V:2] z2G3AB2c4 | 
[V:3] z12 | 
[V:4] z12 | 
[V:1] F2G2A2D2G4 | 
[V:2] A2B2A2B2GB2c | 
[V:3] z12 | 
[V:4] z12 | 
[V:1] F2B2A2G4^F2 | 
[V:2] A2d3cB2A4 | 
[V:3] z12 | 
[V:4] z12 | 
[V:1] G8z4 | 
[V:2] G8B2c2 | 
[V:3] z12 | 
[V:4] z12 | 
[V:1] =B4B4B4 | 
[V:2] d4e4d4 | 
[V:3] G12- | 
[V:4] z12 | 
[V:1] =B8G4 | 
[V:2] z4g4g4 | 
[V:3] G12 | 
[V:4] D12 | 
[V:1] z2d2e2d3=Bc2 | 
[V:2] a3ge2f2g4 | 
[V:3] z12 | 
[V:4] D4C2D2E4 | 
[V:1] d8d4 | 
[V:2] z4g8 | 
[V:3] G12 | 
[V:4] D8B,4 | 
[V:1] c2d2e6c2 | 
[V:2] a8g4 | 
[V:3] c12- | 
[V:4] A,6B,2C4 | 
[V:1] c4z2A4=B2 | 
[V:2] a4f8 | 
[V:3] c12 | 
[V:4] F,8F,4 | 
[V:1] c4d4G4 | 
[V:2] f2e2g4z2d2 | 
[V:3] c4B8 | 
[V:4] A,4G,4D4 | 
[V:1] A2c3=Bc2A3G | 
[V:2] e2f3ga2e2f2 | 
[V:3] A12 | 
[V:4] z4C6B,2 | 
[V:1] =B12 | 
[V:2] g4z4z4 | 
[V:3] G12- | 
[V:4] D12 | 
[V:1] z4G4G4- | 
[V:2] d8B4 | 
[V:3] G12 | 
[V:4] z12 | 
[V:1] G2F2D2E2F4 | 
[V:2] G8c4 | 
[V:3] z12 | 
[V:4] B,6G,2A,4 | 
[V:1] G2E3DD4^C2 | 
[V:2] B3GA2B2G3F | 
[V:3] z12 | 
[V:4] G,4F,2G,2E,4 | 
[V:1] D4F2G2A4 | 
[V:2] A4z4f4 | 
[V:3] d8d4- | 
[V:4] D,8D,4 | 
[V:1] B3GG8 | 
[V:2] g2d4d2e2g2 | 
[V:3] d4G8 | 
[V:4] G,8E,4 | 
[V:1] z12 | 
[V:2] f2a2g3f/e/d4 | 
[V:3] z12 | 
[V:4] F,4G,8 | 
[V:1] =B4A4d4- | 
[V:2] g2f4f2g4 | 
[V:3] d12- | 
[V:4] G,4D,8- | 
[V:1] d2c2=B2A2A4 | 
[V:2] a4f4z4 | 
[V:3] d12 | 
[V:4] D,12 | 
[V:1] F2G2A4G2=B2- | 
[V:2] a4f4g4- | 
[V:3] d12 | 
[V:4] z4z4G,4 | 
[V:1] BA=B2c2B2A3G | 
[V:2] g4e4f4 | 
[V:3] d4c8 | 
[V:4] G,4A,4F,4 | 
[V:1] G6^F2F2E2 | 
[V:2] d8d4 | 
[V:3] B4A8 | 
[V:4] G,4D,8 | 
[V:1] G4z4z4 | 
[V:2] d8B4- | 
[V:3] G12 | 
[V:4] z2B,4C2D4 | 
[V:1] G4F2G2A4 | 
[V:2] B4A8 | 
[V:3] d12 | 
[V:4] G,4D,8 | 
[V:1] B4G4F3E | 
[V:2] G8B4- | 
[V:3] d4B2c2d4 | 
[V:4] z12 | 
[V:1] G4z4=B2c2 | 
[V:2] B2c2d4g4 | 
[V:3] G12 | 
[V:4] D4B,2C2D4 | 
[V:1] d4=B2G2A4 | 
[V:2] z2d2edcBA4 | 
[V:3] z12 | 
[V:4] G,8F,4 | 
[V:1] =B4c8 | 
[V:2] z2d2c2f2e2f2 | 
[V:3] z12 | 
[V:4] G,4A,8 | 
[V:1] =B4A6G2 | 
[V:2] g4e6d2 | 
[V:3] z12 | 
[V:4] G,4C8 | 
[V:1] G4A2E2^F2EF | 
[V:2] d4e2c4B2 | 
[V:3] z12 | 
[V:4] B,4A,8 | 
[V:1] G4D4z4 | 
[V:2] d4B2c2d4 | 
[V:3] g12- | 
[V:4] G,12 | 
[V:1] =B6c2d4- | 
[V:2] G12 | 
[V:3] g12 | 
[V:4] z12 | 
[V:1] d2c2A2=B4A2 | 
[V:2] z12 | 
[V:3] f12 | 
[V:4] D12 | 
[V:1] c2d2e6d2 | 
[V:2] e8e4 | 
[V:3] g8g4 | 
[V:4] C12 | 
[V:1] d8d4 | 
[V:2] f4g6f2 | 
[V:3] d12 | 
[V:4] B,12 | 
[V:1] c6=B2c2A2 | 
[V:2] a8a4 | 
[V:3] z12 | 
[V:4] A,12 | 
[V:1] =B4c2d4B2 | 
[V:2] d12- | 
[V:3] g12 | 
[V:4] G,12 | 
[V:1] A2d3c=B2A4 | 
[V:2] d12 | 
[V:3] f8f4 | 
[V:4] D,12 | 
[V:1] G4z4z4 | 
[V:2] G4B3cd2g2- | 
[V:3] g4d2g3fe2 | 
[V:4] z4G,8- | 
[V:1] z12 | 
[V:2] g2feg4z4 | 
[V:3] d8z4 | 
[V:4] G,12 | 
[V:1] d6c2=B4 | 
[V:2] d8e4 | 
[V:3] g12 | 
[V:4] G,12 | 
[V:1] A4c4=B4 | 
[V:2] f8d4- | 
[V:3] a8g4 | 
[V:4] F,8G,4 | 
[V:1] A2d2e2^c4=B2 | 
[V:2] d4a8 | 
[V:3] f4e8 | 
[V:4] z4A,8 | 
[V:1] d8A2=B2 | 
[V:2] a6f2f4 | 
[V:3] d12 | 
[V:4] D,8D,4 | 
[V:1] c3=Bd3B2GA2 | 
[V:2] g4a2d2e2f2 | 
[V:3] z12 | 
[V:4] E,4D,2G,4F,2 | 
[V:1] G2d4c2B2A2- | 
[V:2] d4z4z4 | 
[V:3] z12 | 
[V:4] G,4B,2C2D3C | 
[V:1] AFG3FEDB2Ad- | 
[V:2] z12 | 
[V:3] z12 | 
[V:4] A,2B,2C3B,G,2F,2 | 
[V:1] dcBA/G/^F3EG4 | 
[V:2] d4c4d2eg- | 
[V:3] z12 | 
[V:4] B,4A,4G,4- | 
[V:1] z12 | 
[V:2] gfd2_ed3/c/Bc3B | 
[V:3] z12 | 
[V:4] G,2F,2G,2D,2_E,4 | 
[V:1] z12 | 
[V:2] d4z4A2B2 | 
[V:3] z12 | 
[V:4] D,12 | 
[V:1] A2B2A2dd2cdB- | 
[V:2] A2d2cd2fe2d2 | 
[V:3] z12 | 
[V:4] z12 | 
[V:1] BGAGEFG2FDE2 | 
[V:2] Bc2GA2GBAd2c | 
[V:3] z12 | 
[V:4] z12 | 
[V:1] D2G3FEDD4 | 
[V:2] d2e2d2g3fed | 
[V:3] G12- | 
[V:4] z12 | 
[V:1] z2G2E2F2G4 | 
[V:2] d2z2c4d2e2 | 
[V:3] G4A4B4 | 
[V:4] z12 | 
[V:1] A8c4 | 
[V:2] f6g2a4- | 
[V:3] c12- | 
[V:4] F,12 | 
[V:1] c6=B2A4 | 
[V:2] a2g2e4f4 | 
[V:3] c8c4 | 
[V:4] A,8F,4 | 
[V:1] G4z2A2B2d2- | 
[V:2] d4e2f2dg2f | 
[V:3] B4c2d4G2- | 
[V:4] G,3F,E,2D,2G,4 | 
[V:1] dBc2B2G2c2A2 | 
[V:2] g2a3gg2e2f2 | 
[V:3] G2F2G2B2A4 | 
[V:4] B,2A,2D4C4 | 
[V:1] B3cd4z2G2 | 
[V:2] g4z2d2ed2c/B/ | 
[V:3] G12 | 
[V:4] D8B,4 | 
[V:1] A2F2B3A/G/^F3E | 
[V:2] A2B2G2d2c4 | 
[V:3] z12 | 
[V:4] C2D4B,2A,4 | 
[V:1] G4z4F2A2 | 
[V:2] z2d2B4A4 | 
[V:3] d12- | 
[V:4] G,8D,4 | 
[V:1] G2B2A2G4F2 | 
[V:2] B3cd2G4A2 | 
[V:3] d12 | 
[V:4] G,4F,2B,4A,2 | 
[V:1] G2d3cA2B2G2 | 
[V:2] B4A4G2B2 | 
[V:3] d12- | 
[V:4] G,4F,4G,4 | 
[V:1] ^F8F4 | 
[V:2] A4z2A4A2 | 
[V:3] d12 | 
[V:4] D,12 | 
[V:1] G6A2=B4 | 
[V:2] B2c2d6d2- | 
[V:3] G12 | 
[V:4] z4z4G,4 | 
[V:1] =B4A4B2G2 | 
[V:2] d2e2f4d4 | 
[V:3] z4z4d4 | 
[V:4] G,4F,4G,4 | 
[V:1] A4d2d3c=B2 | 
[V:2] f2g2a4f4 | 
[V:3] d8d4 | 
[V:4] D,8D,4 | 
[V:1] A4B4G4 | 
[V:2] f4d8- | 
[V:3] c4B8 | 
[V:4] F,4G,8 | 
[V:1] F3GA4G2A2 | 
[V:2] d8z4 | 
[V:3] A4f4e2d2- | 
[V:4] D,8G,2F,2 | 
[V:1] =B2G2A3Bc4 | 
[V:2] g4f3e/d/c3B/c/ | 
[V:3] d2c2d4e2f2 | 
[V:4] G,2E,2D,4A,4 | 
[V:1] =B2d2z2G2A3G | 
[V:2] d2z2G2d2c2e2 | 
[V:3] g4d4e2c2- | 
[V:4] G,4B,4A,4- | 
[V:1] A2=B3GG3^FFE | 
[V:2] f2g4d4d2 | 
[V:3] c2d4B2A4 | 
[V:4] A,2G,6D,4 | 
[V:1] G12 ||  
[V:2] B3cd8 ||  
[V:3] G12 ||  
[V:4] z4G,8 ||  
[V:1]  [K:F] [K:clef=treble][M:4/2]G8 | 
[V:2]  [K:F] [K:clef=treble-8][M:4/2]G8- | 
[V:3]  [K:F] [K:clef=treble-8][M:4/2]z8 | 
[V:4]  [K:F] [K:clef=bass][M:4/2]z8 | 
[V:1] D4G4- | 
[V:2] G8 | 
[V:3] z8 | 
[V:4] z8 | 
[V:1] G2F2E2D2 | 
[V:2] G8 | 
[V:3] z8 | 
[V:4] z8 | 
[V:1] D4G4 | 
[V:2] G8 | 
[V:3] z8 | 
[V:4] z8 | 
[V:1] E4F4 | 
[V:2] A8 | 
[V:3] z8 | 
[V:4] z8 | 
[V:1] G4B4 | 
[V:2] G8 | 
[V:3] z8 | 
[V:4] z8 | 
[V:1] A6G2 | 
[V:2] F8 | 
[V:3] z8 | 
[V:4] z8 | 
[V:1] G2z2d4- | 
[V:2] G8 | 
[V:3] z8 | 
[V:4] z8 | 
[V:1] d4=B4 | 
[V:2] G8 | 
[V:3] z8 | 
[V:4] z8 | 
[V:1] c4=B2A2- | 
[V:2] A4d4- | 
[V:3] z8 | 
[V:4] z8 | 
[V:1] A2F2G4 | 
[V:2] d4B4 | 
[V:3] z8 | 
[V:4] z8 | 
[V:1] A4F4 | 
[V:2] A4z2A2 | 
[V:3] z8 | 
[V:4] z8 | 
[V:1] D2E2D2G2 | 
[V:2] B2A2B2G2 | 
[V:3] z8 | 
[V:4] z8 | 
[V:1] E2F2G4- | 
[V:2] A4G2B2- | 
[V:3] z8 | 
[V:4] z8 | 
[V:1] G2A2G2A2 | 
[V:2] B2c2B2c2 | 
[V:3] z8 | 
[V:4] z8 | 
[V:1] =B4c3B | 
[V:2] d4A4 | 
[V:3] z8 | 
[V:4] z8 | 
[V:1] A3GG4- | 
[V:2] c4B4 | 
[V:3] z8 | 
[V:4] z8 | 
[V:1] G2^F2F2E2 | 
[V:2] A8 | 
[V:3] z8 | 
[V:4] z8 | 
[V:1] G8 | 
[V:2] G8- | 
[V:3] z8 | 
[V:4] z8 | 
[V:1] z8 | 
[V:2] G8- | 
[V:3] z8 | 
[V:4] z8 | 
[V:1] G8 | 
[V:2] G8- | 
[V:3] z8 | 
[V:4] z8 | 
[V:1] D4G4 | 
[V:2] G8 | 
[V:3] z8 | 
[V:4] G,8 | 
[V:1] F2A2G2B2 | 
[V:2] z8 | 
[V:3] z8 | 
[V:4] D,4G,4 | 
[V:1] A2F2G4 | 
[V:2] z8 | 
[V:3] z8 | 
[V:4] F,2A,2G,2B,2 | 
[V:1] A4D4 | 
[V:2] z8 | 
[V:3] z8 | 
[V:4] A,2F,2G,4 | 
[V:1] z2A4=B2 | 
[V:2] z8 | 
[V:3] z8 | 
[V:4] A,4D,4 | 
[V:1] c4A2d2 | 
[V:2] z8 | 
[V:3] z8 | 
[V:4] z2A,4B,2 | 
[V:1] c2A4B2 | 
[V:2] z8 | 
[V:3] z8 | 
[V:4] C4A,2D2 | 
[V:1] A4F2G2 | 
[V:2] z8 | 
[V:3] z8 | 
[V:4] C2A,4B,2 | 
[V:1] A2c4=B2 | 
[V:2] z8 | 
[V:3] z8 | 
[V:4] A,4F,2G,2 | 
[V:1] c2A2G4 | 
[V:2] z8 | 
[V:3] z8 | 
[V:4] A,2C4B,2 | 
[V:1] A2F2G2B2 | 
[V:2] z8 | 
[V:3] z8 | 
[V:4] C2A,2G,2z2 | 
[V:1] A2z2D2G2 | 
[V:2] z8 | 
[V:3] z8 | 
[V:4] A,2F,2G,2B,2 | 
[V:1] F2ED^C3=B, | 
[V:2] z8 | 
[V:3] z8 | 
[V:4] A,2G,F,E,4 | 
[V:1] D8- | 
[V:2] z8 | 
[V:3] z8 | 
[V:4] D,4z4 | 
[V:1] D8 | 
[V:2] z8 | 
[V:3] z8 | 
[V:4] D,6E,2 | 
[V:1] z8 | 
[V:2] d6e2 | 
[V:3] z8 | 
[V:4] F,4G,4 | 
[V:1] z8 | 
[V:2] f4g4- | 
[V:3] z8 | 
[V:4] A,4G,4 | 
[V:1] z8 | 
[V:2] g2a2g2e2 | 
[V:3] z8 | 
[V:4] C8 | 
[V:1] z8 | 
[V:2] f2g2a4 | 
[V:3] z8 | 
[V:4] D6C2 | 
[V:1] z8 | 
[V:2] d4g4- | 
[V:3] z8 | 
[V:4] B,2G,2B,4 | 
[V:1] z8 | 
[V:2] g2^f2^f2e2 | 
[V:3] z8 | 
[V:4] A,8 | 
[V:1] D8 | 
[V:2] g8 | 
[V:3] G8- | 
[V:4] G,8- | 
[V:1] E4D4 | 
[V:2] z8 | 
[V:3] G8- | 
[V:4] G,8 | 
[V:1] G6F2 | 
[V:2] d8 | 
[V:3] G8- | 
[V:4] z8 | 
[V:1] G4A4 | 
[V:2] e4d4 | 
[V:3] G8 | 
[V:4] z8 | 
[V:1] =B6G2 | 
[V:2] g8 | 
[V:3] G8- | 
[V:4] D8 | 
[V:1] G4z4 | 
[V:2] d8 | 
[V:3] G8 | 
[V:4] B,4D4 | 
[V:1] G4A2c2- | 
[V:2] e8 | 
[V:3] c8- | 
[V:4] C4A,4- | 
[V:1] c2=B2G4 | 
[V:2] e4e4 | 
[V:3] c8- | 
[V:4] A,4C4 | 
[V:1] A4F4 | 
[V:2] f8 | 
[V:3] c8- | 
[V:4] F,8- | 
[V:1] A6=B2 | 
[V:2] f8 | 
[V:3] c8 | 
[V:4] F,8 | 
[V:1] c6=B2 | 
[V:2] e8 | 
[V:3] c8- | 
[V:4] A,8 | 
[V:1] A2G2A4 | 
[V:2] f8 | 
[V:3] c8 | 
[V:4] F,8 | 
[V:1] B4G4 | 
[V:2] d8- | 
[V:3] B8 | 
[V:4] G,8 | 
[V:1] ^F2F4E2 | 
[V:2] d8- | 
[V:3] A8 | 
[V:4] D,8 | 
[V:1] G8- | 
[V:2] d8 | 
[V:3] G8- | 
[V:4] z8 | 
[V:1] G8- | 
[V:2] z8 | 
[V:3] G8- | 
[V:4] D8 | 
[V:1] G8- | 
[V:2] z8 | 
[V:3] G8- | 
[V:4] B,4C4 | 
[V:1] G8 | 
[V:2] B6c2 | 
[V:3] G8 | 
[V:4] D8 | 
[V:1] z8 | 
[V:2] d4g4 | 
[V:3] z8 | 
[V:4] G,8 | 
[V:1] z8 | 
[V:2] f4e4- | 
[V:3] z8 | 
[V:4] D,4G,4- | 
[V:1] z8 | 
[V:2] e2d2d4- | 
[V:3] z8 | 
[V:4] G,4F,4 | 
[V:1] z8 | 
[V:2] d4c4 | 
[V:3] z8 | 
[V:4] E,8 | 
[V:1] A8 | 
[V:2] d4A4 | 
[V:3] d8- | 
[V:4] D,8 | 
[V:1] G8 | 
[V:2] B8 | 
[V:3] d8- | 
[V:4] G,8 | 
[V:1] F6G2 | 
[V:2] A8- | 
[V:3] d8- | 
[V:4] D,8- | 
[V:1] A4d4- | 
[V:2] A8 | 
[V:3] d8 | 
[V:4] D,8 | 
[V:1] d2c2=B4 | 
[V:2] ^f8- | 
[V:3] d8- | 
[V:4] z8 | 
[V:1] A6G2 | 
[V:2] f8 | 
[V:3] d8 | 
[V:4] z8 | 
[V:1] =B8 | 
[V:2] g6f2 | 
[V:3] G8- | 
[V:4] D8 | 
[V:1] G8 | 
[V:2] e2d2d4 | 
[V:3] G8 | 
[V:4] B,4G,4 | 
[V:1] A8 | 
[V:2] f6g2 | 
[V:3] z4d4- | 
[V:4] D,8- | 
[V:1] F2G2A4 | 
[V:2] a4f4- | 
[V:3] d4d4 | 
[V:4] D,8 | 
[V:1] B4A4 | 
[V:2] f2d2f2g2 | 
[V:3] d8- | 
[V:4] z4D,4- | 
[V:1] d6c2 | 
[V:2] a8 | 
[V:3] d8 | 
[V:4] D,4D,4 | 
[V:1] A2=B2c4- | 
[V:2] A8- | 
[V:3] c8- | 
[V:4] F,8- | 
[V:1] c2=B2A2GF | 
[V:2] A8 | 
[V:3] c8- | 
[V:4] F,8 | 
[V:1] E8 | 
[V:2] z8 | 
[V:3] c8- | 
[V:4] A,8- | 
[V:1] z8 | 
[V:2] a8 | 
[V:3] c8 | 
[V:4] A,8 | 
[V:1] (3G4D4G4 | 
[V:2] d8 | 
[V:3] B6G2 | 
[V:4] G,8 | 
[V:1] (3E4F4G4- | 
[V:2] c4d4 | 
[V:3] A4G4- | 
[V:4] z8 | 
[V:1] (3G4B4A4- | 
[V:2] e4f4 | 
[V:3] G4F4 | 
[V:4] z8 | 
[V:1] (3A4G6F2 | 
[V:2] d6c2 | 
[V:3] B8 | 
[V:4] z8 | 
[V:1] (3A6=B2c4 | 
[V:2] e8 | 
[V:3] A8 | 
[V:4] z8 | 
[V:1] (3=B4A6G2 | 
[V:2] f6e2 | 
[V:3] d6c2 | 
[V:4] D,8 | 
[V:1] (3G4D4E4 | 
[V:2] (3:2:4d4c2B4c2 | 
[V:3] B4G4 | 
[V:4] G,8 | 
[V:1] (3G4^F6E2 | 
[V:2] d4z4 | 
[V:3] A8 | 
[V:4] D,8 | 
[V:1] G8 | 
[V:2] =B8 | 
[V:3] G8- | 
[V:4] D8 | 
[V:1] z8 | 
[V:2] c4d4 | 
[V:3] G8 | 
[V:4] E4D4- | 
[V:1] d8 | 
[V:2] G4g4 | 
[V:3] z8 | 
[V:4] D4B,4 | 
[V:1] c8 | 
[V:2] a2^f4e2 | 
[V:3] z8 | 
[V:4] A,8 | 
[V:1] =B4d4- | 
[V:2] g8 | 
[V:3] d8- | 
[V:4] G,8 | 
[V:1] d2c2A4 | 
[V:2] z8 | 
[V:3] d4d4- | 
[V:4] F,8 | 
[V:1] =B2G2G4- | 
[V:2] G4B4 | 
[V:3] d8 | 
[V:4] G,8 | 
[V:1] G2^F2F2E2 | 
[V:2] A8 | 
[V:3] d8 | 
[V:4] D,8 | 
[V:1] G4z4 | 
[V:2] B6c2 | 
[V:3] G8- | 
[V:4] D8- | 
[V:1] =B4G4 | 
[V:2] d4B4 | 
[V:3] G8- | 
[V:4] D4D4- | 
[V:1] =B6c2 | 
[V:2] G4g4 | 
[V:3] G8- | 
[V:4] D8 | 
[V:1] d8 | 
[V:2] g6f2 | 
[V:3] G8 | 
[V:4] D8 | 
[V:1] =B8 | 
[V:2] e2d2d4- | 
[V:3] g8- | 
[V:4] G,8- | 
[V:1] d4d4- | 
[V:2] d4B4 | 
[V:3] g8 | 
[V:4] G,8 | 
[V:1] d4c2=B2 | 
[V:2] G8 | 
[V:3] g8 | 
[V:4] B,4C4 | 
[V:1] A4d4- | 
[V:2] z8 | 
[V:3] f8- | 
[V:4] D8- | 
[V:1] d2c2=B4 | 
[V:2] z8 | 
[V:3] f8 | 
[V:4] D8- | 
[V:1] A6G2 | 
[V:2] z8 | 
[V:3] f8 | 
[V:4] D8 | 
[V:1] G8 | 
[V:2] G8- | 
[V:3] g8- | 
[V:4] z8 | 
[V:1] z4B4- | 
[V:2] G8 | 
[V:3] g8 | 
[V:4] z8 | 
[V:1] B8 | 
[V:2] d8- | 
[V:3] g8 | 
[V:4] G,8- | 
[V:1] B8 | 
[V:2] d4g4- | 
[V:3] d8- | 
[V:4] G,8 | 
[V:1] B8 | 
[V:2] g8 | 
[V:3] d8 | 
[V:4] G,8 | 
[V:1] A8- | 
[V:2] c4d4 | 
[V:3] z8 | 
[V:4] F,8- | 
[V:1] A8 | 
[V:2] c4A4- | 
[V:3] z8 | 
[V:4] F,8 | 
[V:1] A8 | 
[V:2] A4A4 | 
[V:3] z8 | 
[V:4] F,8 | 
[V:1] D8- | 
[V:2] B6G2 | 
[V:3] g8- | 
[V:4] G,8- | 
[V:1] D8 | 
[V:2] B2c2d4 | 
[V:3] g4g4- | 
[V:4] G,8 | 
[V:1] z8 | 
[V:2] _e2d3cB2 | 
[V:3] g8 | 
[V:4] G,8 | 
[V:1] D8 | 
[V:2] A4z2A2- | 
[V:3] f8- | 
[V:4] D,8- | 
[V:1] D8 | 
[V:2] A2B2A2d2- | 
[V:3] f4f4- | 
[V:4] D,8- | 
[V:1] A8 | 
[V:2] d2c2A4 | 
[V:3] f8 | 
[V:4] D,8 | 
[V:1] =B6c2 | 
[V:2] G8 | 
[V:3] g8- | 
[V:4] z8 | 
[V:1] d4e4- | 
[V:2] z4c4- | 
[V:3] g4g4- | 
[V:4] z8 | 
[V:1] e2d2d4- | 
[V:2] c4d4 | 
[V:3] g4f4 | 
[V:4] z8 | 
[V:1] d4^c4 | 
[V:2] A8 | 
[V:3] e8 | 
[V:4] z8 | 
[V:1] d8 | 
[V:2] B4G4 | 
[V:3] d8- | 
[V:4] G,8- | 
[V:1] z8 | 
[V:2] g6fe | 
[V:3] d8 | 
[V:4] G,4G,4- | 
[V:1] B4G4 | 
[V:2] d4e4 | 
[V:3] z8 | 
[V:4] G,8 | 
[V:1] A8- | 
[V:2] d4c2B2 | 
[V:3] z8 | 
[V:4] F,8- | 
[V:1] A8 | 
[V:2] A8 | 
[V:3] z8 | 
[V:4] F,4F,4- | 
[V:1] A8 | 
[V:2] f8 | 
[V:3] z8 | 
[V:4] F,8 | 
[V:1] B8 | 
[V:2] d8 | 
[V:3] z8 | 
[V:4] G,8- | 
[V:1] G8 | 
[V:2] B6c2 | 
[V:3] z8 | 
[V:4] G,4G,4- | 
[V:1] z8 | 
[V:2] d2_e2d4 | 
[V:3] g8- | 
[V:4] G,4F,4 | 
[V:1] z8 | 
[V:2] c2c4B2 | 
[V:3] g8 | 
[V:4] _E,8 | 
[V:1] z8 | 
[V:2] d8 | 
[V:3] a8- | 
[V:4] D,8- | 
[V:1] d8 | 
[V:2] f8 | 
[V:3] a8 | 
[V:4] D,8 | 
[V:1] =B4c4 | 
[V:2] e8 | 
[V:3] g8 | 
[V:4] E,8 | 
[V:1] d8 | 
[V:2] z4a4- | 
[V:3] f8 | 
[V:4] D,8 | 
[V:1] e8 | 
[V:2] a8 | 
[V:3] e8- | 
[V:4] A,8- | 
[V:1] ^c6=B2 | 
[V:2] a8 | 
[V:3] e8 | 
[V:4] A,8 | 
[V:1] d8 | 
[V:2] f8 | 
[V:3] d8- | 
[V:4] B,8 | 
[V:1] z4d4- | 
[V:2] g8 | 
[V:3] d8- | 
[V:4] G,8- | 
[V:1] d4=B4- | 
[V:2] z8 | 
[V:3] d8- | 
[V:4] G,8- | 
[V:1] B4=B4 | 
[V:2] z8 | 
[V:3] d8 | 
[V:4] G,8 | 
[V:1] A8 | 
[V:2] f8 | 
[V:3] z8 | 
[V:4] D8- | 
[V:1] d8 | 
[V:2] g8- | 
[V:3] G8- | 
[V:4] D4D4- | 
[V:1] =B8 | 
[V:2] g8 | 
[V:3] G8 | 
[V:4] D4C4 | 
[V:1] G8 | 
[V:2] d8 | 
[V:3] G8 | 
[V:4] B,8 | 
[V:1] z4A4- | 
[V:2] e8- | 
[V:3] c8- | 
[V:4] A,8- | 
[V:1] A2=B2c4 | 
[V:2] e8 | 
[V:3] c8 | 
[V:4] A,8 | 
[V:1] d2c3=BA2 | 
[V:2] f8 | 
[V:3] c8 | 
[V:4] F,8 | 
[V:1] G8 | 
[V:2] d8- | 
[V:3] B8 | 
[V:4] G,8 | 
[V:1] A4F4- | 
[V:2] d8 | 
[V:3] A8- | 
[V:4] D,8 | 
[V:1] F2G2A4 | 
[V:2] c8 | 
[V:3] A8 | 
[V:4] z4F,4 | 
[V:1] D2z2d4- | 
[V:2] B4d4 | 
[V:3] G8- | 
[V:4] G,4B,4- | 
[V:1] d2c2B2A2 | 
[V:2] G4g4- | 
[V:3] G8 | 
[V:4] B,2C2D4 | 
[V:1] B3cBAG2 | 
[V:2] g2f2d4 | 
[V:3] z8 | 
[V:4] G,4B,4 | 
[V:1] A2E2^F3E | 
[V:2] c2c4B2 | 
[V:3] z8 | 
[V:4] A,8 | 
[V:1] G8- | 
[V:2] d4z4 | 
[V:3] d8 | 
[V:4] G,8- | 
[V:1] G8- | 
[V:2] B6c2 | 
[V:3] d8 | 
[V:4] G,8 | 
[V:1] G8- | 
[V:2] d4_e3d | 
[V:3] G8- | 
[V:4] z8 | 
[V:1] G8 | 
[V:2] d4g4 | 
[V:3] G8 | 
[V:4] z8 | 
[V:1] z8 | 
[V:2] f4a4- | 
[V:3] d8- | 
[V:4] D,8- | 
[V:1] z8 | 
[V:2] a4g4- | 
[V:3] d4d4- | 
[V:4] D,4G,4- | 
[V:1] =B4G4 | 
[V:2] g8 | 
[V:3] d8 | 
[V:4] G,8 | 
[V:1] A6=B2 | 
[V:2] f4d4 | 
[V:3] d8 | 
[V:4] D,8 | 
[V:1] c6=B2 | 
[V:2] e6g2 | 
[V:3] c8- | 
[V:4] z4A,4- | 
[V:1] c4d4 | 
[V:2] f2e2g2z2 | 
[V:3] c4B4- | 
[V:4] A,4G,4 | 
[V:1] z2G3FG2 | 
[V:2] G4d4 | 
[V:3] B8 | 
[V:4] D8 | 
[V:1] A4c4 | 
[V:2] e2f4e2 | 
[V:3] A8 | 
[V:4] C8 | 
[V:1] =B4d4- | 
[V:2] g8 | 
[V:3] G4B4 | 
[V:4] D8 | 
[V:1] d2c2=B2A2 | 
[V:2] a8 | 
[V:3] A4d4- | 
[V:4] D,8- | 
[V:1] A8 | 
[V:2] f8- | 
[V:3] d2c2d4- | 
[V:4] D,8 | 
[V:1] d8 | 
[V:2] f4g4- | 
[V:3] d4G4- | 
[V:4] z8 | 
[V:1] B8 | 
[V:2] g8 | 
[V:3] G2F2G4 | 
[V:4] D8 | 
[V:1] A8 | 
[V:2] e4f3e | 
[V:3] A4F4- | 
[V:4] C6B,2 | 
[V:1] F4G4 | 
[V:2] c4d2e2 | 
[V:3] F4B4 | 
[V:4] A,4G,4 | 
[V:1] A6G2 | 
[V:2] f8 | 
[V:3] A4c4- | 
[V:4] F,6E,2 | 
[V:1] A4B2G2 | 
[V:2] f4d4- | 
[V:3] c4B4 | 
[V:4] F,4G,4 | 
[V:1] A2^F4E2 | 
[V:2] d4d4 | 
[V:3] A8 | 
[V:4] D,8 | 
[V:1] G4B4 | 
[V:2] z8 | 
[V:3] G8 | 
[V:4] (3_E,6F,2G,4 | 
[V:1] A2d4c2 | 
[V:2] d4f4 | 
[V:3] F8 | 
[V:4] D,8 | 
[V:1] (3B8A2G2 | 
[V:2] B4c4 | 
[V:3] G8 | 
[V:4] _E,8 | 
[V:1] (3:2:4^F4G2F4E2 | 
[V:2] d8 | 
[V:3] A8 | 
[V:4] D,8 | 
[V:1] G8- | 
[V:2] d8- | 
[V:3] G8- | 
[V:4] z8 | 
[V:1] G8 |]  
[V:2] d8 |]  
[V:3] G8 |]  
[V:4] G,8 |]  



% FRACTION = 0.9375BUT SHOULD BE 0
% FRACTION = 0.9375BUT SHOULD BE 0
